dist/static/img/service/context-1.svg

<svg width="48" height="48" viewBox="0 0 48 48" fill="none" xmlns="http://www.w3.org/2000/svg">
<g clip-path="url(#clip0_1004_2320)">
<path d="M9.0639 39.5916C8.98946 39.9716 8.62009 40.2214 8.24002 40.147C7.86005 40.0726 7.61021 39.7032 7.68465 39.3232C7.79096 38.7917 8.07793 38.3266 8.4819 37.9944C8.88052 37.6676 9.38809 37.4709 9.93821 37.4709C10.5706 37.4709 11.1447 37.7287 11.5592 38.1433C11.9765 38.5579 12.2316 39.1319 12.2316 39.7643C12.2316 40.3836 11.9872 40.9443 11.5912 41.3588C11.9872 41.7708 12.2316 42.3315 12.2316 42.9506C12.2316 43.5831 11.9765 44.1572 11.5592 44.5718C11.1447 44.9889 10.5706 45.2441 9.93821 45.2441C9.36418 45.2441 8.83805 45.0315 8.43399 44.6807C7.9344 44.2476 7.64209 43.6097 7.64209 42.9506C7.64209 42.56 7.95577 42.2464 8.34643 42.2464C8.73437 42.2464 9.04796 42.56 9.04796 42.9506C9.04796 43.2111 9.15155 43.4476 9.35359 43.623C9.50771 43.7558 9.71227 43.8383 9.93821 43.8383C10.1827 43.8383 10.4059 43.7399 10.5653 43.5778C10.7274 43.4184 10.8257 43.1951 10.8257 42.9506C10.8257 42.7035 10.7274 42.4829 10.5653 42.3208C10.398 42.1534 10.1746 42.0604 9.93821 42.0604C9.55018 42.0604 9.23396 41.7468 9.23396 41.3588C9.23396 40.9682 9.55018 40.6546 9.93821 40.6546C10.1827 40.6546 10.4059 40.5563 10.5653 40.3942C10.7274 40.2348 10.8257 40.0115 10.8257 39.7643C10.8257 39.5198 10.7274 39.2966 10.5653 39.1372C10.4059 38.9752 10.1827 38.8768 9.93821 38.8768C9.72024 38.8768 9.52355 38.9513 9.37215 39.0761C9.2153 39.2036 9.10637 39.3844 9.0639 39.5916V39.5916ZM24.977 6.42056L25.8407 7.82634L27.4432 8.21166C27.7488 8.28609 27.996 8.47744 28.1476 8.72456C28.299 8.97441 28.3548 9.28003 28.283 9.58566C28.2591 9.67866 28.2299 9.76106 28.1926 9.83541C28.1528 9.91247 28.1023 9.98691 28.0412 10.0586L26.9729 11.313L27.1004 12.9661L27.103 12.99C27.1189 13.2929 27.0126 13.5773 26.8239 13.7952C26.6352 14.0159 26.3615 14.1646 26.0479 14.1885C25.9443 14.1965 25.8433 14.1885 25.7476 14.1699C25.6519 14.1514 25.5589 14.122 25.4739 14.0796L24.0016 13.471L22.471 14.1035C22.1787 14.2231 21.8678 14.2151 21.602 14.1035C21.3309 13.9892 21.1051 13.7739 20.9854 13.4843C20.9509 13.4019 20.927 13.317 20.9137 13.2319C20.8977 13.1416 20.8951 13.0512 20.9004 12.9662L21.0279 11.3131L19.9596 10.0587C19.755 9.81956 19.6673 9.52191 19.6885 9.23231C19.7125 8.94 19.8453 8.65837 20.0845 8.45362C20.1643 8.38725 20.244 8.33409 20.3264 8.29153C20.3449 8.28356 20.3635 8.27559 20.3821 8.26753C20.4566 8.23828 20.5283 8.21447 20.6028 8.19853L20.6294 8.19591L22.1627 7.82381L23.029 6.41541V6.41278C23.1938 6.14437 23.4516 5.96897 23.736 5.89987C24.0202 5.83341 24.3313 5.87334 24.5996 6.03806C24.621 6.05137 24.6421 6.06731 24.6607 6.08316C24.7165 6.12047 24.767 6.16556 24.8121 6.21347C24.8761 6.27713 24.9318 6.34613 24.977 6.42056V6.42056ZM24.7936 8.80697L23.999 7.51547L23.2071 8.80434V8.80172C23.1141 8.95575 22.9627 9.07284 22.774 9.11794L21.3044 9.47409L22.2611 10.5955C22.3913 10.7337 22.4684 10.9251 22.4524 11.1323L22.3354 12.6446L23.7333 12.0652C23.8981 11.9987 24.0894 11.9933 24.2674 12.0652L25.668 12.6446L25.5484 11.1323H25.5511C25.5377 10.9543 25.5909 10.771 25.7159 10.6248L26.6965 9.47419L25.28 9.13134C25.086 9.09938 24.9052 8.98772 24.7936 8.80697V8.80697ZM28.9634 12.7135C29.1201 12.3601 29.5347 12.2006 29.8882 12.3601C30.2416 12.5168 30.4011 12.9314 30.2416 13.2848C29.7979 14.2788 29.3141 15.1717 28.8278 15.9424C29.2105 15.8653 29.6091 15.7404 30.0105 15.5677C30.8768 15.1929 31.7432 14.6056 32.4926 13.8217C32.9177 13.3779 33.2792 12.9101 33.5716 12.4344C33.8718 11.9481 34.1031 11.4511 34.2651 10.9595C34.4989 10.2473 34.576 9.56437 34.4883 8.96634C34.4086 8.44022 34.2014 7.98581 33.8506 7.65356C33.5528 7.36931 33.2074 7.2045 32.8353 7.12472C32.5882 7.07156 32.3278 7.05563 32.062 7.06369C31.9079 8.124 31.6741 9.17634 31.3738 10.2048C31.2647 10.5769 30.8768 10.7921 30.5047 10.6832C30.1326 10.5769 29.9201 10.1862 30.0263 9.81412C30.3001 8.88666 30.5206 7.89806 30.6721 6.867C30.7785 6.14672 30.8475 5.40797 30.8768 4.65328H17.1268C17.2171 7.16991 17.7886 9.54037 18.5671 11.5707C19.2449 13.3406 20.6533 16.1895 22.2558 17.5156C23.9354 18.9028 22.8192 20.5425 21.5941 22.3389C21.0413 23.1522 20.4566 24.0079 20.2148 24.7972H27.7861C27.5442 24.0079 26.9623 23.1522 26.4068 22.3389C25.1843 20.5425 24.0655 18.9028 25.745 17.5156C26.2287 17.117 26.7947 16.4605 27.3767 15.5995C27.9215 14.7917 28.469 13.8139 28.9634 12.7135ZM27.7701 17.4279C27.3768 17.9115 26.9941 18.3049 26.6406 18.5973C25.9471 19.1712 26.7204 20.3062 27.5655 21.5471C28.267 22.5756 29.0057 23.6599 29.2343 24.7972H31.0335C31.4215 24.7972 31.735 25.1135 31.735 25.5015V29.2513H45.0943C45.4849 29.2513 45.7986 29.5649 45.7986 29.9528V32.7007C45.7986 33.0887 45.4849 33.4023 45.0943 33.4023C44.7062 33.4023 44.3927 33.0886 44.3927 32.7007V30.6571H31.7351V46.5941H44.3928V35.8844C44.3928 35.4964 44.7064 35.1829 45.0944 35.1829C45.485 35.1829 45.7987 35.4965 45.7987 35.8844V47.2985C45.7987 47.6864 45.485 48 45.0944 48C31.0335 48 16.9699 48 2.9064 48C2.51837 48 2.20215 47.6863 2.20215 47.2985V41.4546C2.20215 41.0665 2.51837 40.753 2.9064 40.753C3.29443 40.753 3.60793 41.0666 3.60793 41.4546V46.5941H16.2657V36.1209H3.60802V38.2709C3.60802 38.6589 3.29443 38.9724 2.90649 38.9724C2.51846 38.9724 2.20224 38.6588 2.20224 38.2709V35.4167C2.20224 35.0287 2.51846 34.7152 2.90649 34.7152H16.2658V31.954C16.2658 31.566 16.5795 31.2498 16.97 31.2498C17.3581 31.2498 17.6716 31.566 17.6716 31.954V46.5942H30.3294V26.2057H28.6045H19.3962H17.6716V28.7676C17.6716 29.1582 17.3579 29.4718 16.9699 29.4718C16.5794 29.4718 16.2657 29.1582 16.2657 28.7676V25.5014C16.2657 25.1134 16.5794 24.7972 16.9699 24.7972H18.7665C18.9976 23.6598 19.7365 22.5755 20.4354 21.547C21.2831 20.3061 22.0539 19.1711 21.3629 18.5972C21.0121 18.3075 20.6295 17.9142 20.2361 17.4278C19.3618 17.4677 18.3944 17.271 17.435 16.8592C16.4066 16.4153 15.3808 15.7164 14.4905 14.789C13.2335 13.4708 12.4389 11.932 12.1759 10.5077C11.8916 8.985 12.2051 7.57378 13.1831 6.63572C13.6853 6.15731 14.2621 5.88366 14.8759 5.75344C15.1709 5.68959 15.4739 5.66044 15.7768 5.65772C15.7475 5.29097 15.7263 4.92159 15.7157 4.54688C15.3543 4.43259 15.0274 4.23328 14.767 3.97022C14.3445 3.55031 14.084 2.96822 14.084 2.32781C14.084 1.68731 14.3445 1.10531 14.767 0.682781C15.1867 0.263156 15.7687 0 16.4092 0H31.5916C32.232 0 32.814 0.263156 33.2339 0.682969C33.6565 1.1055 33.9169 1.6875 33.9169 2.328C33.9169 2.96841 33.6565 3.55041 33.2339 3.97041C32.9735 4.23356 32.6492 4.43287 32.2852 4.54706C32.2746 4.92178 32.2532 5.29116 32.2241 5.65791C32.527 5.66053 32.83 5.68978 33.1249 5.75363C33.7388 5.88394 34.3156 6.15759 34.8179 6.63591C35.4052 7.19934 35.7533 7.93275 35.8782 8.7645C35.9978 9.57506 35.8996 10.4786 35.5992 11.3928C35.4078 11.9828 35.1261 12.5834 34.7647 13.1708C34.4166 13.7315 33.9993 14.2763 33.5103 14.7892C32.6227 15.7166 31.5943 16.4155 30.5658 16.8567C29.609 17.2712 28.6417 17.4678 27.7701 17.4279V17.4279ZM19.1757 15.9451C18.4901 14.8608 17.8177 13.5481 17.2543 12.0705C16.6749 10.5556 16.2019 8.86275 15.9361 7.06378C15.673 7.05572 15.4126 7.07166 15.1654 7.12481C14.7934 7.20459 14.448 7.36931 14.1503 7.65366C13.5391 8.23828 13.3557 9.18975 13.5523 10.2553C13.7702 11.4247 14.44 12.7029 15.5083 13.8218C16.2576 14.6057 17.124 15.193 17.9904 15.5677C18.3944 15.7404 18.793 15.868 19.1757 15.9451ZM16.4092 3.2475H31.5916C31.8439 3.2475 32.0726 3.14391 32.2399 2.97637C32.4074 2.80903 32.5111 2.58038 32.5111 2.328C32.5111 2.07553 32.4075 1.84434 32.2399 1.67691C32.0726 1.50956 31.8439 1.40588 31.5916 1.40588H16.4092C16.1567 1.40588 15.9282 1.50956 15.7607 1.67691C15.5934 1.84434 15.4897 2.07553 15.4897 2.328C15.4897 2.58038 15.5933 2.80903 15.7607 2.97637C15.9282 3.14381 16.1567 3.2475 16.4092 3.2475ZM39.9123 38.1832C40.2976 38.1805 40.6166 38.4888 40.6192 38.8767C40.6246 39.262 40.3136 39.581 39.9283 39.5836C39.9203 39.5836 36.7845 39.6261 36.5266 39.5384C36.0165 39.3683 35.857 38.999 36.0988 38.51C36.1652 38.3665 36.2847 38.2097 36.5 37.928C36.8268 37.5002 37.4221 36.7189 38.3895 35.3368C38.5463 35.111 38.6686 34.9063 38.7616 34.7203C38.9662 34.3005 39.0698 33.8965 38.6925 33.5191C38.5331 33.357 38.3098 33.2587 38.0654 33.2587C37.8475 33.2587 37.6507 33.3331 37.4993 33.458C37.3425 33.5855 37.2309 33.7662 37.1911 33.9735C37.1166 34.3536 36.7472 34.6034 36.3672 34.529C35.9871 34.4545 35.7374 34.0853 35.8118 33.7052C35.9181 33.1737 36.2051 32.706 36.6091 32.3765C37.0077 32.0496 37.5152 31.8529 38.0654 31.8529C38.6978 31.8529 39.2718 32.1081 39.6864 32.5253C40.2019 33.0408 40.4731 33.8247 40.3083 34.5449C40.2525 34.7868 40.1595 35.0498 40.0186 35.3368C39.8963 35.5867 39.7369 35.8552 39.5376 36.1395C38.8706 37.0909 38.3922 37.7472 38.0494 38.2043C38.8864 38.1965 39.9069 38.1832 39.9123 38.1832V38.1832ZM23.3347 28.8074C22.9467 28.8074 22.6331 28.4912 22.6331 28.1032C22.6331 27.715 22.9468 27.3988 23.3347 27.3988H24.6661C25.0541 27.3988 25.3676 27.715 25.3676 28.1032V34.3243C25.3676 35.2491 23.9618 35.2491 23.9618 34.3243V28.8073H23.3347V28.8074Z" fill="#1F5AFF"/>
</g>
<defs>
<clipPath id="clip0_1004_2320">
<rect width="48" height="48" fill="white"/>
</clipPath>
</defs>
</svg>

<svg width="48" height="48" viewBox="0 0 48 48" fill="none" xmlns="http://www.w3.org/2000/svg"><g clip-path="url(#clip0_1004_2320)"><path d="M9.064 39.592a.704.704 0 01-1.38-.269 2.304 2.304 0 012.254-1.852c.633 0 1.207.258 1.621.672a2.3 2.3 0 01.032 3.215c.396.413.64.973.64 1.593 0 .632-.255 1.206-.672 1.62a2.288 2.288 0 01-3.125.109 2.304 2.304 0 01-.792-1.73.702.702 0 111.406 0c0 .261.104.498.306.673a.893.893 0 001.211-.045.877.877 0 00.26-.627.883.883 0 00-.26-.63.883.883 0 00-.627-.26.703.703 0 110-1.406.877.877 0 00.627-.26.879.879 0 00.26-.63.877.877 0 00-.26-.628.877.877 0 00-.627-.26.884.884 0 00-.874.715zM24.977 6.42l.864 1.405 1.602.386a1.142 1.142 0 01.84 1.374 1.243 1.243 0 01-.09.25c-.04.076-.09.15-.152.223l-1.068 1.254.127 1.653.003.024a1.13 1.13 0 01-.28.805 1.13 1.13 0 01-1.35.285l-1.471-.609-1.531.633a1.132 1.132 0 01-1.486-.62 1.127 1.127 0 01-.085-.518l.128-1.653-1.068-1.254a1.138 1.138 0 01.366-1.767l.056-.024c.075-.03.146-.054.22-.07l.027-.002 1.534-.372.866-1.409v-.002a1.141 1.141 0 011.57-.375.52.52 0 01.062.045.889.889 0 01.151.13c.064.064.12.133.165.208zm-.183 2.386l-.795-1.292-.792 1.29v-.003a.69.69 0 01-.433.316l-1.47.356.957 1.121c.13.139.207.33.191.537l-.117 1.513 1.398-.58a.713.713 0 01.534 0l1.401.58-.12-1.513h.003a.697.697 0 01.165-.507l.98-1.15-1.416-.344a.704.704 0 01-.486-.324zm4.17 3.906c.156-.353.57-.512.924-.353a.698.698 0 01.354.925 21.185 21.185 0 01-1.414 2.657 6.013 6.013 0 001.183-.374 7.705 7.705 0 002.482-1.746 8.3 8.3 0 001.079-1.388c.3-.486.531-.983.693-1.474.234-.713.311-1.396.223-1.994-.08-.526-.287-.98-.637-1.312a2.065 2.065 0 00-1.016-.53 3.22 3.22 0 00-.773-.06 23.063 23.063 0 01-.688 3.14.701.701 0 11-1.348-.39 21.44 21.44 0 00.646-2.947c.107-.72.175-1.459.205-2.214h-13.75c.09 2.517.662 4.887 1.44 6.918.678 1.77 2.086 4.618 3.689 5.945 1.68 1.387.563 3.027-.662 4.823-.553.813-1.137 1.669-1.38 2.458h7.572c-.242-.79-.824-1.645-1.38-2.458-1.222-1.796-2.34-3.436-.661-4.823.484-.399 1.05-1.055 1.632-1.916a19.51 19.51 0 001.586-2.886zm-1.194 4.715a8.426 8.426 0 01-1.13 1.17c-.693.573.08 1.708.925 2.95.702 1.028 1.44 2.112 1.67 3.25h1.799c.388 0 .701.316.701.704v3.75h13.36c.39 0 .704.313.704.7V32.7a.702.702 0 01-.705.701.7.7 0 01-.701-.701v-2.044H31.735v15.937h12.658v-10.71a.7.7 0 01.701-.701c.391 0 .705.313.705.701v11.414a.702.702 0 01-.705.702H2.906a.703.703 0 01-.704-.702v-5.843a.703.703 0 011.406 0v5.14h12.658V36.12H3.608v2.15a.703.703 0 01-1.406 0v-2.854c0-.388.316-.702.704-.702h13.36v-2.761a.704.704 0 111.406 0v14.64h12.657V26.206H17.672v2.562a.702.702 0 11-1.406 0V25.5c0-.388.313-.704.704-.704h1.797c.23-1.137.97-2.221 1.668-3.25.848-1.24 1.619-2.376.928-2.95a8.276 8.276 0 01-1.127-1.17c-.874.04-1.842-.156-2.801-.568a9.171 9.171 0 01-2.944-2.07c-1.258-1.318-2.052-2.857-2.315-4.281-.284-1.523.03-2.934 1.007-3.872a3.436 3.436 0 011.693-.883c.295-.063.598-.093.9-.095-.028-.367-.05-.736-.06-1.111a2.321 2.321 0 01-.949-.577 2.32 2.32 0 010-3.287A2.32 2.32 0 0116.409 0h15.183c.64 0 1.222.263 1.642.683a2.32 2.32 0 010 3.287 2.29 2.29 0 01-.949.577c-.01.375-.032.744-.06 1.11.302.004.605.033.9.097a3.44 3.44 0 011.693.882c.587.563.935 1.297 1.06 2.128.12.811.022 1.715-.279 2.629a8.32 8.32 0 01-.834 1.778 9.96 9.96 0 01-1.255 1.618 9.09 9.09 0 01-2.944 2.068c-.957.414-1.924.61-2.796.57zm-8.594-1.483a21.932 21.932 0 01-1.922-3.875 23.84 23.84 0 01-1.318-5.006 3.21 3.21 0 00-.77.06c-.373.08-.718.245-1.016.53-.61.584-.794 1.536-.598 2.601.218 1.17.888 2.448 1.956 3.567a7.701 7.701 0 002.482 1.746c.404.172.803.3 1.186.377zM16.409 3.248h15.183a.913.913 0 00.648-.272.914.914 0 000-1.3.914.914 0 00-.648-.27H16.409a.915.915 0 00-.648.27.914.914 0 000 1.3.914.914 0 00.648.272zm23.503 34.935a.7.7 0 01.016 1.4c-.008 0-3.143.043-3.401-.045-.51-.17-.67-.539-.428-1.028.066-.143.186-.3.401-.582.327-.428.922-1.21 1.89-2.591.156-.226.279-.43.372-.617.204-.42.308-.823-.07-1.2a.877.877 0 00-.627-.261.884.884 0 00-.874.715.704.704 0 01-1.38-.269c.107-.531.394-.999.798-1.328a2.291 2.291 0 013.077.148c.516.516.787 1.3.622 2.02a3.676 3.676 0 01-.29.792c-.122.25-.281.518-.48.802a80.502 80.502 0 01-1.489 2.065l1.863-.02zm-16.577-9.376a.703.703 0 010-1.409h1.331c.388 0 .702.317.702.705v6.221c0 .925-1.406.925-1.406 0v-5.517h-.627z" fill="#1F5AFF"/></g><defs><clipPath id="clip0_1004_2320"><path fill="#fff" d="M0 0h48v48H0z"/></clipPath></defs></svg>
